X: 1
T:The WUSPBA March
M:6/8
L:1/8
Q:80
C:P/M James C. Yardley
S:March
K:HP
|: {g}c3/4d/4|
{gef}e3/2c/2ea3/2f/2{g}e|
{gfg}f3/2d/2a{ef}e3/2c/2{d}A|  !
{gef}e3/2c/2ea3/2f/2{g}e|
{gde}d3/2c/2{d}A{GdG}B2{g}c3/4d/4|
{gef}e3/2c/2ea3/2f/2{g}e|  !
{gfg}f3/2d/2a{ef}e3/2c/2{d}A|
{g}c3/2{d}A/2{e}A{gef}e3/2a/2A|
{gcd}c3/2d/2{e}B{G}A2:| |:  !
{gf}g|
{ag}a3{ef}e3/2a/2c|
{g}d3/2f/2a{ef}e3/2c/2{d}A|  !
a3/2f/2a{ef}e3/2a/2c|
{gde}d3/2c/2{d}A{GdG}B2|1
{gf}g|  !
{ag}a3{ef}e3/2a/2c|
{g}d3/2f/2a{ef}e3/2c/2{d}A|
{g}c3/2{d}A/2{e}A{gef}e3/2a/2A|  !
{gcd}c3/2d/2{e}B{G}A2:|2
{g}c3/4d/4|
{gef}e3/2c/2ea3/2f/2{g}e|  !
{gfg}f3/2d/2a{ef}e3/2c/2{d}A|
{g}c3/2{d}A/2{e}A{gef}e3/2a/2A|
{gcd}c3/2d/2{e}B{G}A2|] |:  !
e|
{g}A2{GdGe}A{gcd}c2{e}A|
{gde}d3/2c/2d{gef}e2{AGAG}A|
{g}c2{GdGe}A{g}e3/2a/2A|  !
{gde}d3/2c/2{d}A{gBd}B2{e}G|
{g}A2{GdGe}A{gcd}c2{e}A|
{gde}d3/2c/2d{gef}e2{AGAG}A|  !
{g}c3/2{d}A/2{e}A{gef}e3/2a/2A|
{gcd}c3/2d/2{e}B{G}A2:| |:
{g}f3/4g/4|  !
a3/2e/2{A}ea3/2e/2{g}c|
{g}d3/2f/2ae3/2a/2A|
{g}e3/2a/2ca3/2e/2{A}e|  !
{gde}d3/2c/2{d}A{GdG}B2|1
{g}f3/4g/4|
a3/2e/2{A}ea3/2e/2{g}c|  !
{g}d3/2f/2ae3/2a/2A|
{g}c3/2{d}A/2{e}A{gef}e3/2a/2A|
{gcd}c3/2d/2{e}B{G}A2:|2  !
e|
{g}A2{GdGe}A{gcd}c2{e}A|
{gde}d3/2c/2d{gef}e2{AGAG}A|
{g}c3/2{d}A/2{e}A{gef}e3/2a/2A|  !
{gcd}c3/2d/2{e}B{G}A2|]
